X: 3
T: Teahan's Favourite
R: slide
M: 12/8
L: 1/8
K: Edor
B|: efe B2 A GFE B2A | FED A2 D d2 D A2 d |
efe B2 A GFE B2A | FED F2 A FE2 E3 :|
|: B2 e ede f2 a afa | baf a2 f e2 d B2A |
[1 B2 e ede f2 a a^ga | baf a2 f e3 e2d :|
[2 fgf f2 e ded B2A | FED F2 A FE2 E3 |]

